img/i/boss.svg

<svg enable-background="new 0 0 512 512" viewBox="0 0 512 512" xmlns="http://www.w3.org/2000/svg"><path d="m192.046 71.078h127.896v77.611h-127.896z" fill="#269af2"/><path d="m192.046 362.153h127.896v77.611h-127.896z" fill="#4c5870"/><path d="m373.459 362.153h127.896v77.611h-127.896z" fill="#181818"/><path d="m10.645 362.153h127.896v77.611h-127.896z" fill="#a2a9af"/><g fill="#11113f"><path d="m192.989 157.427h126.02c6.397 0 11.584-5.186 11.584-11.584v-71.917c0-6.398-5.187-11.584-11.584-11.584h-126.02c-6.397 0-11.584 5.186-11.584 11.584v71.917c.001 6.398 5.188 11.584 11.584 11.584zm11.584-71.917h102.853v48.75h-102.853z"/><path d="m319.011 354.573h-126.022c-6.397 0-11.584 5.186-11.584 11.584v71.917c0 6.398 5.187 11.584 11.584 11.584h126.02c6.397 0 11.584-5.186 11.584-11.584v-71.917c.001-6.398-5.186-11.584-11.582-11.584zm-11.584 71.917h-102.853v-48.75h102.853z"/><path d="m500.416 354.573h-126.02c-6.397 0-11.584 5.186-11.584 11.584v71.917c0 6.398 5.187 11.584 11.584 11.584h126.02c6.397 0 11.584-5.186 11.584-11.584v-71.917c0-6.398-5.187-11.584-11.584-11.584zm-11.583 71.917h-102.853v-48.75h102.853z"/><path d="m137.604 354.573h-126.02c-6.397 0-11.584 5.186-11.584 11.583v71.917c0 6.398 5.187 11.584 11.584 11.584h126.02c6.397 0 11.584-5.186 11.584-11.584v-71.917c0-6.397-5.187-11.583-11.584-11.583zm-11.584 71.917h-102.853v-48.75h102.853z"/><path d="m244.416 290.172v41.233c0 6.398 5.187 11.584 11.584 11.584s11.584-5.186 11.584-11.584v-41.233c0-6.398-5.187-11.584-11.584-11.584s-11.584 5.186-11.584 11.584z"/><path d="m74.594 342.989c6.397 0 11.584-5.186 11.584-11.584v-63.822h339.645v63.822c0 6.398 5.187 11.584 11.584 11.584s11.584-5.186 11.584-11.584v-75.405c0-6.398-5.187-11.584-11.584-11.584h-169.823v-63.822c0-6.398-5.187-11.584-11.584-11.584s-11.584 5.186-11.584 11.584v63.822h-169.822c-6.397 0-11.584 5.186-11.584 11.584v75.405c.001 6.398 5.187 11.584 11.584 11.584z"/></g></svg>

<?xml version="1.0" encoding="iso-8859-1"?>
<!-- Generator: Adobe Illustrator 19.0.0, SVG Export Plug-In . SVG Version: 6.00 Build 0)  -->
<svg version="1.1" id="Layer_1" xmlns="http://www.w3.org/2000/svg" xmlns:xlink="http://www.w3.org/1999/xlink" x="0px" y="0px"
	 viewBox="0 0 512 512" style="enable-background:new 0 0 512 512;" xml:space="preserve">
<rect x="192.046" y="71.078" style="fill:#269AF2;" width="127.896" height="77.611"/>
<rect x="192.046" y="362.153" style="fill:#4C5870;" width="127.896" height="77.611"/>
<rect x="373.459" y="362.153" style="fill:#181818;" width="127.896" height="77.611"/>
<rect x="10.645" y="362.153" style="fill:#A2A9AF;" width="127.896" height="77.611"/>
<g>
	<path style="fill:#11113F;" d="M192.989,157.427h126.02c6.397,0,11.584-5.186,11.584-11.584V73.926
		c0-6.398-5.187-11.584-11.584-11.584h-126.02c-6.397,0-11.584,5.186-11.584,11.584v71.917
		C181.406,152.241,186.593,157.427,192.989,157.427z M204.573,85.51h102.853v48.75H204.573L204.573,85.51L204.573,85.51z"/>
	<path style="fill:#11113F;" d="M319.011,354.573H192.989c-6.397,0-11.584,5.186-11.584,11.584v71.917
		c0,6.398,5.187,11.584,11.584,11.584h126.02c6.397,0,11.584-5.186,11.584-11.584v-71.917
		C330.594,359.759,325.407,354.573,319.011,354.573z M307.427,426.49H204.574v-48.75h102.853V426.49z"/>
	<path style="fill:#11113F;" d="M500.416,354.573h-126.02c-6.397,0-11.584,5.186-11.584,11.584v71.917
		c0,6.398,5.187,11.584,11.584,11.584h126.02c6.397,0,11.584-5.186,11.584-11.584v-71.917
		C512,359.759,506.813,354.573,500.416,354.573z M488.833,426.49H385.98v-48.75h102.853V426.49z"/>
	<path style="fill:#11113F;" d="M137.604,354.573H11.584C5.187,354.573,0,359.759,0,366.156v71.917
		c0,6.398,5.187,11.584,11.584,11.584h126.02c6.397,0,11.584-5.186,11.584-11.584v-71.917
		C149.188,359.759,144.001,354.573,137.604,354.573z M126.02,426.49H23.167v-48.75H126.02V426.49z"/>
	<path style="fill:#11113F;" d="M244.416,290.172v41.233c0,6.398,5.187,11.584,11.584,11.584c6.397,0,11.584-5.186,11.584-11.584
		v-41.233c0-6.398-5.187-11.584-11.584-11.584C249.603,278.588,244.416,283.774,244.416,290.172z"/>
	<path style="fill:#11113F;" d="M74.594,342.989c6.397,0,11.584-5.186,11.584-11.584v-63.822h339.645v63.822
		c0,6.398,5.187,11.584,11.584,11.584c6.397,0,11.584-5.186,11.584-11.584V256c0-6.398-5.187-11.584-11.584-11.584H267.584v-63.822
		c0-6.398-5.187-11.584-11.584-11.584c-6.397,0-11.584,5.186-11.584,11.584v63.822H74.594c-6.397,0-11.584,5.186-11.584,11.584
		v75.405C63.011,337.803,68.197,342.989,74.594,342.989z"/>
</g>
<g>
</g>
<g>
</g>
<g>
</g>
<g>
</g>
<g>
</g>
<g>
</g>
<g>
</g>
<g>
</g>
<g>
</g>
<g>
</g>
<g>
</g>
<g>
</g>
<g>
</g>
<g>
</g>
<g>
</g>
</svg>
